X:1
T: Mrs. Macleod of Elanreoch
C:
R:Strathspey
Q: 128
K:D
M:4/4
L:1/16
|:A2|d3g f2e2 d3B A2d2|BF3 d3F B2E2 E2c2|d3e f2d2 fa3 ef3|dcBA d2F2 DDD2 D2A2|
d3g f2e2 d3B A2d2|BF3 d3F B2E2 E2c2|d3e f2d2 fa3 ef3|dcBA d2F2 DDD2 D2d1/2c1/2B|
AD3 AF3 A2D2 D2d2|BABc d2F2 B2E2 E2d2|AD3 AF3 A2D2 D2d2|BABc d2F2 DDD2 D2d2|
AD3 AF3 A2D2 D2d2|BABc d2F2 B2E2 E2d2|AD3 AF3 DEFG A2g2|f3d e2f2 ddd2 d2:|
